icons/dockerignore.svg

<svg width="16" height="16" viewBox="0 0 16 16" fill="none" xmlns="http://www.w3.org/2000/svg">
<path d="M8.51001 4H7.01001V5.5H8.51001V4Z" fill="#909090" fill-opacity="0.9"/>
<path d="M6.51001 4H5.01001V5.5H6.51001V4Z" fill="#909090" fill-opacity="0.9"/>
<path d="M6.51001 6H5.01001V7.5H6.51001V6Z" fill="#909090" fill-opacity="0.9"/>
<path d="M8.51001 6H7.01001V7.5H8.51001V6Z" fill="#909090" fill-opacity="0.9"/>
<path d="M10.51 6H9.01001V7.5H10.51V6Z" fill="#909090" fill-opacity="0.9"/>
<path d="M4.51001 6H3.01001V7.5H4.51001V6Z" fill="#909090" fill-opacity="0.9"/>
<path d="M4.76001 9.5C4.95892 9.5 5.14968 9.57902 5.29034 9.71967C5.43099 9.86032 5.51001 10.0511 5.51001 10.25C5.51001 10.4489 5.43099 10.6397 5.29034 10.7803C5.14968 10.921 4.95892 11 4.76001 11C4.56353 11.0002 4.37463 10.9242 4.23294 10.7881C4.09124 10.652 4.00776 10.4663 4.00001 10.27C4.00768 10.0754 4.08976 9.89117 4.22932 9.75533C4.36888 9.61949 4.55527 9.54241 4.75001 9.54L4.76001 9.5ZM12.51 5C12.1472 5.29211 11.8977 5.7017 11.8046 6.15811C11.7115 6.61452 11.7806 7.08911 12 7.5C12 8 11 8 11 8H1.00001C1.00001 8 5.24521e-06 13.49 5.50001 13.5C7.09865 13.4764 8.65654 12.9921 9.98683 12.1052C11.3171 11.2184 12.3633 9.96659 13 8.5C13 8.5 15 8.5 15.5 7C15.1905 6.84367 14.8465 6.768 14.5 6.78C14.1554 6.78659 13.8155 6.86136 13.5 7C13.5 7 13.5 5.5 12.5 5" fill="#909090" fill-opacity="0.9"/>
</svg>

<svg xmlns="http://www.w3.org/2000/svg" width="16" height="16" fill="none" viewBox="0 0 16 16"><path fill="#909090" fill-opacity=".9" d="M8.51 4h-1.5v1.5h1.5zm-2 0h-1.5v1.5h1.5zm0 2h-1.5v1.5h1.5zm2 0h-1.5v1.5h1.5zm2 0h-1.5v1.5h1.5zm-6 0h-1.5v1.5h1.5z"/><path fill="#909090" fill-opacity=".9" d="M4.76 9.5a.75.75 0 0 1 0 1.5.76.76 0 0 1-.76-.73.76.76 0 0 1 .75-.73zM12.51 5A2 2 0 0 0 12 7.5c0 .5-1 .5-1 .5H1s-1 5.49 4.5 5.5a8.31 8.31 0 0 0 7.5-5s2 0 2.5-1.5a2.06 2.06 0 0 0-1-.22 2.6 2.6 0 0 0-1 .22s0-1.5-1-2"/></svg>
